packages/kaspersky-hexa-ui-icons/src/iconsSVGs/24/Scattergather.svg

<svg width="24" height="24" viewBox="0 0 24 24" fill="none" xmlns="http://www.w3.org/2000/svg">
<path d="M17.2929 2.29289C17.6834 1.90237 18.3166 1.90237 18.7071 2.29289L21.7071 5.29289C22.0976 5.68342 22.0976 6.31658 21.7071 6.70711L18.7071 9.70711C18.3166 10.0976 17.6834 10.0976 17.2929 9.70711C16.9024 9.31658 16.9024 8.68342 17.2929 8.29289L18.5858 7H16.4415C16.0111 7 15.6289 7.27543 15.4928 7.68377L14.4045 10.9487C13.9962 12.1737 12.8498 13 11.5585 13H10C9.44772 13 9 12.5523 9 12C9 11.4477 9.44772 11 10 11H11.5585C11.9889 11 12.3711 10.7246 12.5072 10.3162L13.5955 7.05132C14.0038 5.82629 15.1502 5 16.4415 5H18.5858L17.2929 3.70711C16.9024 3.31658 16.9024 2.68342 17.2929 2.29289Z" fill="black"/>
<path d="M17.2929 21.7071C17.6834 22.0976 18.3166 22.0976 18.7071 21.7071L21.7071 18.7071C22.0976 18.3166 22.0976 17.6834 21.7071 17.2929L18.7071 14.2929C18.3166 13.9024 17.6834 13.9024 17.2929 14.2929C16.9024 14.6834 16.9024 15.3166 17.2929 15.7071L18.5858 17H16.2361C15.8573 17 15.511 16.786 15.3416 16.4472L14.3944 14.5528C14.1474 14.0588 13.5468 13.8586 13.0528 14.1056C12.5588 14.3526 12.3586 14.9532 12.6056 15.4472L13.5528 17.3416C14.061 18.358 15.0998 19 16.2361 19H18.5858L17.2929 20.2929C16.9024 20.6834 16.9024 21.3166 17.2929 21.7071Z" fill="black"/>
<path fill-rule="evenodd" clip-rule="evenodd" d="M2 11C2 9.89543 2.89543 9 4 9H6C7.10457 9 8 9.89543 8 11V13C8 14.1046 7.10457 15 6 15H4C2.89543 15 2 14.1046 2 13V11ZM4 11H6V13H4L4 11Z" fill="black"/>
</svg>

<svg xmlns="http://www.w3.org/2000/svg" width="24" height="24" fill="none" viewBox="0 0 24 24"><path fill="#000" fill-rule="evenodd" d="M18.7071 2.2929c-.3905-.3905-1.0237-.3905-1.4142 0s-.3905 1.0237 0 1.4142L18.5858 5h-2.1443a3 3 0 0 0-2.846 2.0513l-1.0883 3.2649a1 1 0 0 1-.9487.6838H10c-.5523 0-1 .4477-1 1s.4477 1 1 1h1.5585a3 3 0 0 0 2.846-2.0513l1.0883-3.265A1 1 0 0 1 16.4415 7h2.1443l-1.2929 1.2929c-.3905.3905-.3905 1.0237 0 1.4142s1.0237.3905 1.4142 0l3-3c.3905-.3905.3905-1.0237 0-1.4142zM2 11c0-1.1046.8954-2 2-2h2c1.1046 0 2 .8954 2 2v2c0 1.1046-.8954 2-2 2H4c-1.1046 0-2-.8954-2-2zm2 0h2v2H4zm13.2929 10.7071c.3905.3905 1.0237.3905 1.4142 0l3-3c.3905-.3905.3905-1.0237 0-1.4142l-3-3c-.3905-.3905-1.0237-.3905-1.4142 0s-.3905 1.0237 0 1.4142L18.5858 17h-2.3497a1 1 0 0 1-.8945-.5528l-.9472-1.8944c-.247-.494-.8476-.6942-1.3416-.4472s-.6942.8476-.4472 1.3416l.9472 1.8944A3 3 0 0 0 16.2361 19h2.3497l-1.2929 1.2929c-.3905.3905-.3905 1.0237 0 1.4142"/></svg>
